Hatter-kde-dark/actions/22/reverse.svg

<svg xmlns="http://www.w3.org/2000/svg" viewBox="0 0 22 22">
  <defs id="defs3051">
    <style type="text/css" id="current-color-scheme">
      .ColorScheme-Text {
        color:#dedede;
      }
      </style>
  </defs>
 <path 
    style="fill:currentColor;fill-opacity:1;stroke:none" 
    d="M 14.5 3 L 14.28125 3.2148438 L 11 6.4453125 L 11.71875 7.1542969 L 14 4.9082031 L 14 13.060547 L 14 17 L 15 17 L 15 13.060547 L 15 4.9082031 L 17.28125 7.1542969 L 18 6.4453125 L 14.71875 3.2148438 L 14.5 3 z M 7 5 L 7 8.9394531 L 7 17.091797 L 4.71875 14.845703 L 4 15.554688 L 7.28125 18.785156 L 7.5 19 L 7.71875 18.785156 L 11 15.554688 L 10.28125 14.845703 L 8 17.091797 L 8 8.9394531 L 8 5 L 7 5 z "
    class="ColorScheme-Text"
    />  
</svg>

<?xml version="1.0" encoding="UTF-8"?>
<svg viewBox="0 0 22 22" xmlns="http://www.w3.org/2000/svg">
 <defs id="defs3051">
  <style id="current-color-scheme" type="text/css">.ColorScheme-Text {
        color:#dedede;
      }</style>
 </defs>
 <path class="ColorScheme-Text" d="m14.5 3-0.21875 0.21484-3.2812 3.2305 0.71875 0.70898 2.2812-2.2461v8.1523 3.9395h1v-3.9395-8.1523l2.2812 2.2461 0.71875-0.70898-3.2812-3.2305-0.21875-0.21484zm-7.5 2v3.9395 8.1523l-2.2812-2.2461-0.71875 0.70898 3.2812 3.2305 0.21875 0.21484 0.21875-0.21484 3.2812-3.2305-0.71875-0.70898-2.2812 2.2461v-8.1523-3.9395h-1z" fill="currentColor"/>
</svg>
